assets/icons/outline/code-replace-all.svg

<svg width="24" height="24" viewBox="0 0 24 24" fill="none" xmlns="http://www.w3.org/2000/svg">
<path fill-rule="evenodd" clip-rule="evenodd" d="M7.95703 15C8.39019 15 8.74737 15.0622 9.02734 15.1875C9.31246 15.3075 9.52383 15.4963 9.66113 15.752C9.80359 16.0024 9.875 16.3262 9.875 16.7227V18.3037C9.875 18.5334 9.81894 18.7081 9.70801 18.8281C9.59708 18.9481 9.43589 19.0088 9.22461 19.0088C9.00819 19.0087 8.84174 18.9481 8.72559 18.8281C8.62721 18.7216 8.57452 18.5718 8.56348 18.3789C8.53073 18.4756 8.48597 18.5634 8.4248 18.6406C8.32972 18.7606 8.20493 18.854 8.05176 18.9219C7.89863 18.9896 7.72463 19.0244 7.5293 19.0244C7.2282 19.0244 6.96094 18.969 6.72852 18.8594C6.5016 18.7498 6.3224 18.6008 6.19043 18.4131C6.06371 18.22 6.00002 18.0011 6 17.7559C6 17.474 6.07377 17.2516 6.22168 17.0898C6.36953 16.9282 6.6074 16.8139 6.93457 16.7461C7.26204 16.673 7.6982 16.6367 8.24219 16.6367H8.54395V16.5264C8.5439 16.3386 8.4929 16.2052 8.39258 16.127C8.29742 16.0489 8.13091 16.0098 7.89355 16.0098C7.76683 16.0098 7.62421 16.0253 7.46582 16.0566C7.30735 16.0827 7.13001 16.133 6.93457 16.2061C6.79216 16.2581 6.67056 16.266 6.57031 16.2295C6.46997 16.193 6.3911 16.1297 6.33301 16.041C6.28028 15.9524 6.25397 15.8562 6.25391 15.752C6.25919 15.6476 6.29309 15.548 6.35645 15.4541C6.42512 15.3602 6.52867 15.2875 6.66602 15.2354C6.91949 15.1414 7.15204 15.0782 7.36328 15.0469C7.57965 15.0156 7.77757 15 7.95703 15ZM8.24219 17.2939C8.03635 17.294 7.86481 17.3095 7.72754 17.3408C7.59571 17.3669 7.49797 17.4112 7.43457 17.4736C7.37118 17.531 7.33887 17.6072 7.33887 17.7012C7.33892 17.821 7.38151 17.9198 7.46582 17.998C7.55562 18.0763 7.68292 18.1162 7.84668 18.1162C7.97855 18.1161 8.09506 18.0866 8.19531 18.0293C8.30068 17.9719 8.38497 17.8939 8.44824 17.7949C8.51163 17.6905 8.54395 17.5703 8.54395 17.4346V17.2939H8.24219Z" fill="#282828"/>
<path d="M13.1709 15C13.324 15 13.4853 15.0156 13.6543 15.0469C13.8233 15.073 13.9981 15.1248 14.1777 15.2031C14.3044 15.2501 14.3909 15.3238 14.4385 15.4229C14.4913 15.5168 14.5125 15.6189 14.502 15.7285C14.4966 15.8379 14.4652 15.9368 14.4072 16.0254C14.3544 16.1141 14.278 16.1747 14.1777 16.2061C14.0827 16.2374 13.974 16.2243 13.8525 16.167C13.768 16.1252 13.6781 16.0957 13.583 16.0801C13.4933 16.0592 13.4058 16.0488 13.3213 16.0488C13.1789 16.0489 13.0522 16.0697 12.9414 16.1113C12.8358 16.1531 12.7458 16.2163 12.6719 16.2998C12.5981 16.378 12.5403 16.4769 12.498 16.5967C12.4611 16.7166 12.4424 16.8527 12.4424 17.0039C12.4424 17.3066 12.5187 17.5446 12.6719 17.7168C12.825 17.8889 13.0415 17.9745 13.3213 17.9746C13.4058 17.9746 13.4932 17.9668 13.583 17.9512C13.6728 17.9303 13.7627 17.8992 13.8525 17.8574C13.974 17.8 14.0827 17.7896 14.1777 17.8262C14.2726 17.8575 14.3492 17.9174 14.4072 18.0059C14.4653 18.0946 14.4967 18.1941 14.502 18.3037C14.5072 18.4081 14.4835 18.5102 14.4307 18.6094C14.3778 18.7032 14.2878 18.7734 14.1611 18.8203C13.9869 18.8985 13.8154 18.9515 13.6465 18.9775C13.4828 19.0088 13.3241 19.0244 13.1709 19.0244C12.7326 19.0244 12.3499 18.943 12.0225 18.7812C11.7003 18.6195 11.4491 18.3875 11.2695 18.085C11.0899 17.777 11 17.4162 11 17.0039C11 16.6911 11.0502 16.4121 11.1504 16.167C11.2507 15.9165 11.3958 15.7044 11.5859 15.5322C11.7813 15.36 12.0114 15.2294 12.2754 15.1406C12.5447 15.0467 12.8435 15 13.1709 15Z" fill="#282828"/>
<path fill-rule="evenodd" clip-rule="evenodd" d="M16 12.25C17.5188 12.25 18.75 13.4812 18.75 15V19C18.75 20.5188 17.5188 21.75 16 21.75H5C3.48122 21.75 2.25 20.5188 2.25 19V15C2.25 13.4812 3.48122 12.25 5 12.25H16ZM5 13.75C4.30964 13.75 3.75 14.3096 3.75 15V19C3.75 19.6904 4.30964 20.25 5 20.25H16C16.6904 20.25 17.25 19.6904 17.25 19V15C17.25 14.3096 16.6904 13.75 16 13.75H5Z" fill="#282828"/>
<path d="M17 9.25C19.6234 9.25 21.75 11.3766 21.75 14V17C21.75 17.4142 21.4142 17.75 21 17.75C20.5858 17.75 20.25 17.4142 20.25 17V14C20.25 12.2051 18.7949 10.75 17 10.75H10C9.58579 10.75 9.25 10.4142 9.25 10C9.25 9.58579 9.58579 9.25 10 9.25H17Z" fill="#282828"/>
<path d="M8 3.75C8.41421 3.75 8.75 4.08579 8.75 4.5C8.75 4.91421 8.41421 5.25 8 5.25H7C6.30964 5.25 5.75 5.80964 5.75 6.5V8.18945L6.46973 7.46973C6.76262 7.17683 7.23738 7.17683 7.53027 7.46973C7.82311 7.76262 7.82315 8.2374 7.53027 8.53027L5.53027 10.5303C5.2374 10.8231 4.76262 10.8231 4.46973 10.5303L2.46973 8.53027C2.17683 8.23738 2.17683 7.76262 2.46973 7.46973C2.76262 7.17683 3.23738 7.17683 3.53027 7.46973L4.25 8.18945V6.5C4.25 4.98122 5.48122 3.75 7 3.75H8Z" fill="#282828"/>
<path fill-rule="evenodd" clip-rule="evenodd" d="M11.9688 3.74609C12.4042 3.74613 12.7624 3.81296 13.0439 3.94531C13.3308 4.07221 13.5435 4.27067 13.6816 4.54102C13.825 4.80582 13.8975 5.14816 13.8975 5.56738V7.23828C13.8975 7.48103 13.8411 7.66607 13.7295 7.79297C13.6179 7.91987 13.4557 7.9834 13.2432 7.9834C13.0255 7.98333 12.858 7.9198 12.7412 7.79297C12.642 7.68003 12.59 7.52103 12.5791 7.31641C12.5461 7.41931 12.5004 7.51262 12.4385 7.59473C12.3429 7.72145 12.2183 7.8209 12.0645 7.89258C11.9104 7.9643 11.7347 8 11.5381 8C11.2353 8 10.9671 7.94198 10.7334 7.82617C10.505 7.71032 10.3242 7.55308 10.1914 7.35449C10.0639 7.15035 10 6.91849 10 6.65918C10 6.36152 10.0741 6.12703 10.2227 5.95605C10.3714 5.78502 10.611 5.66352 10.9404 5.5918C11.2697 5.51458 11.7079 5.47561 12.2549 5.47559H12.5586V5.36035C12.5586 5.16173 12.5072 5.02026 12.4062 4.9375C12.3105 4.85503 12.143 4.81348 11.9043 4.81348C11.777 4.81351 11.6337 4.83025 11.4746 4.86328C11.3153 4.89086 11.137 4.94329 10.9404 5.02051C10.7972 5.07559 10.6751 5.0843 10.5742 5.0459C10.4733 5.00728 10.3934 4.94047 10.335 4.84668C10.2819 4.75299 10.2549 4.65121 10.2549 4.54102C10.2602 4.4308 10.2948 4.32577 10.3584 4.22656C10.4274 4.12732 10.531 4.04931 10.6689 3.99414C10.924 3.89483 11.1586 3.829 11.3711 3.7959C11.5888 3.76283 11.7882 3.74609 11.9688 3.74609ZM12.2549 6.1709C12.0479 6.17092 11.8753 6.18762 11.7373 6.2207C11.6045 6.24829 11.5061 6.29512 11.4424 6.36133C11.3786 6.42202 11.3467 6.50225 11.3467 6.60156C11.3467 6.72838 11.3896 6.83329 11.4746 6.91602C11.5648 6.99857 11.6921 7.03997 11.8564 7.04004C11.9891 7.04004 12.1062 7.00973 12.207 6.94922C12.3132 6.88856 12.3991 6.80591 12.4629 6.70117C12.5266 6.5909 12.5585 6.46364 12.5586 6.32031V6.1709H12.2549Z" fill="#282828"/>
<path fill-rule="evenodd" clip-rule="evenodd" d="M15.7012 2C15.9296 2 16.1053 2.06353 16.2275 2.19043C16.3549 2.31732 16.4189 2.50247 16.4189 2.74512V4.31934C16.5069 4.18031 16.6311 4.06027 16.793 3.96094C17.0267 3.81754 17.2899 3.7461 17.582 3.74609C17.9221 3.74609 18.2196 3.8319 18.4746 4.00293C18.7349 4.17396 18.9366 4.41699 19.0801 4.73145C19.2234 5.04586 19.2959 5.4263 19.2959 5.87305C19.2959 6.30891 19.2235 6.68684 19.0801 7.00684C18.9367 7.32677 18.7349 7.57214 18.4746 7.74316C18.2196 7.9142 17.9221 8 17.582 8C17.2793 8 17.0086 7.92526 16.7695 7.77637C16.599 7.6637 16.4715 7.52583 16.3857 7.36328C16.3678 7.54548 16.3112 7.68882 16.2109 7.79297C16.0941 7.91978 15.9242 7.9834 15.7012 7.9834C15.4729 7.98337 15.2979 7.91974 15.1758 7.79297C15.0589 7.66607 15 7.48104 15 7.23828V2.74512C15 2.50236 15.0614 2.31733 15.1836 2.19043C15.3058 2.06363 15.4782 2.00002 15.7012 2ZM17.1357 4.83008C16.9923 4.83008 16.8645 4.86578 16.7529 4.9375C16.6414 5.00923 16.554 5.12287 16.4902 5.27734C16.4265 5.42629 16.3945 5.62485 16.3945 5.87305C16.3945 6.23719 16.4634 6.50245 16.6016 6.66797C16.7397 6.83342 16.918 6.91601 17.1357 6.91602C17.2792 6.91602 17.4045 6.88032 17.5107 6.80859C17.6223 6.73135 17.7097 6.61766 17.7734 6.46875C17.8371 6.3143 17.8691 6.11569 17.8691 5.87305C17.8691 5.50377 17.8 5.23914 17.6621 5.0791C17.524 4.91358 17.3483 4.83008 17.1357 4.83008Z" fill="#282828"/>
</svg>

<svg xmlns="http://www.w3.org/2000/svg" width="24" height="24" fill="none" viewBox="0 0 24 24"><path fill="#282828" fill-rule="evenodd" d="M7.957 15q.65 0 1.07.188.428.18.634.564.214.376.214.97v1.582q0 .345-.167.524-.166.18-.483.18-.325 0-.5-.18-.145-.159-.162-.45a.9.9 0 0 1-.138.263.96.96 0 0 1-.373.28 1.3 1.3 0 0 1-.523.103q-.451 0-.8-.165a1.4 1.4 0 0 1-.539-.446 1.17 1.17 0 0 1-.19-.657q0-.423.222-.666.221-.242.713-.344.49-.11 1.307-.11h.302v-.11q0-.28-.151-.399-.144-.117-.5-.117-.19 0-.427.047a3 3 0 0 0-.531.15q-.214.077-.365.023a.47.47 0 0 1-.237-.189.56.56 0 0 1-.08-.289.6.6 0 0 1 .103-.298.66.66 0 0 1 .31-.219A3.5 3.5 0 0 1 7.957 15m.285 2.294q-.309 0-.514.047a.57.57 0 0 0-.293.133.3.3 0 0 0-.096.227q0 .18.127.297.135.117.38.118.2 0 .35-.087a.7.7 0 0 0 .252-.234.7.7 0 0 0 .096-.36v-.141z" clip-rule="evenodd"/><path fill="#282828" d="M13.17 15q.23 0 .484.047.254.039.524.156.19.07.26.22a.5.5 0 0 1 .064.306.6.6 0 0 1-.095.296.4.4 0 0 1-.23.181q-.141.047-.325-.039a1 1 0 0 0-.269-.087 1.15 1.15 0 0 0-.642.031.7.7 0 0 0-.27.189.8.8 0 0 0-.173.297q-.056.18-.056.407 0 .454.23.713t.65.258q.126 0 .261-.024.135-.03.27-.094.182-.085.325-.03a.43.43 0 0 1 .23.179.59.59 0 0 1 .023.603.5.5 0 0 1-.27.211 2 2 0 0 1-.514.157 2.5 2.5 0 0 1-.476.047q-.657 0-1.148-.243a1.8 1.8 0 0 1-.753-.696 2.1 2.1 0 0 1-.27-1.081q0-.47.15-.837.15-.376.436-.635a2 2 0 0 1 .69-.391Q12.68 15 13.17 15"/><path fill="#282828" fill-rule="evenodd" d="M16 12.25A2.75 2.75 0 0 1 18.75 15v4A2.75 2.75 0 0 1 16 21.75H5A2.75 2.75 0 0 1 2.25 19v-4A2.75 2.75 0 0 1 5 12.25zm-11 1.5c-.69 0-1.25.56-1.25 1.25v4c0 .69.56 1.25 1.25 1.25h11c.69 0 1.25-.56 1.25-1.25v-4c0-.69-.56-1.25-1.25-1.25z" clip-rule="evenodd"/><path fill="#282828" d="M17 9.25A4.75 4.75 0 0 1 21.75 14v3a.75.75 0 0 1-1.5 0v-3A3.25 3.25 0 0 0 17 10.75h-7a.75.75 0 0 1 0-1.5zM8 3.75a.75.75 0 0 1 0 1.5H7c-.69 0-1.25.56-1.25 1.25v1.69l.72-.72a.75.75 0 1 1 1.06 1.06l-2 2a.75.75 0 0 1-1.06 0l-2-2a.75.75 0 1 1 1.06-1.06l.72.72V6.5A2.75 2.75 0 0 1 7 3.75z"/><path fill="#282828" fill-rule="evenodd" d="M11.969 3.746q.652 0 1.075.2.43.19.638.595.215.397.216 1.026v1.671q0 .365-.168.555t-.487.19q-.327 0-.502-.19-.147-.17-.162-.477a.93.93 0 0 1-.514.577Q11.833 8 11.538 8a1.8 1.8 0 0 1-.805-.174 1.4 1.4 0 0 1-.542-.472A1.3 1.3 0 0 1 10 6.66q0-.446.223-.703t.717-.364q.495-.116 1.315-.116h.304V5.36q0-.298-.153-.423-.144-.123-.502-.124-.19 0-.43.05-.239.042-.534.158-.214.082-.366.025a.48.48 0 0 1-.239-.2.6.6 0 0 1-.08-.305.63.63 0 0 1 .103-.314.67.67 0 0 1 .31-.233 3.4 3.4 0 0 1 1.3-.248m.286 2.425q-.31 0-.518.05a.56.56 0 0 0-.295.14.32.32 0 0 0-.095.24.42.42 0 0 0 .128.315q.135.124.381.124.2 0 .351-.09a.7.7 0 0 0 .256-.249.75.75 0 0 0 .096-.38v-.15zM15.701 2q.343 0 .526.19.192.19.192.555V4.32q.132-.209.374-.358.351-.215.789-.215.51 0 .893.257.39.257.605.728.215.472.216 1.142 0 .654-.216 1.134-.215.48-.605.736a1.57 1.57 0 0 1-.893.257q-.454 0-.812-.224a1.1 1.1 0 0 1-.384-.413.7.7 0 0 1-.175.43q-.176.19-.51.19-.342 0-.525-.19Q15 7.603 15 7.238V2.745q0-.364.184-.555.183-.19.517-.19m1.435 2.83a.7.7 0 0 0-.383.107.7.7 0 0 0-.263.34q-.095.224-.095.596 0 .547.207.795a.66.66 0 0 0 .534.248.65.65 0 0 0 .375-.107.77.77 0 0 0 .262-.34q.096-.232.096-.596 0-.554-.207-.794a.66.66 0 0 0-.526-.249" clip-rule="evenodd"/></svg>
